src/icons/svg/Space.svg

<!-- Generated by IcoMoon.io -->
<svg version="1.1" xmlns="http://www.w3.org/2000/svg" width="24" height="24" viewBox="0 0 24 24">
<title>space</title>
<path fill="#c1c6cc" d="M9.17 6l2 2h8.83v10h-16v-12h5.17zM10 4h-6c-1.1 0-1.99 0.9-1.99 2l-0.010 12c0 1.1 0.9 2 2 2h16c1.1 0 2-0.9 2-2v-10c0-1.1-0.9-2-2-2h-8l-2-2z"></path>
</svg>

<svg width="24" height="24" viewBox="0 0 24 24" fill="none" xmlns="http://www.w3.org/2000/svg">
<path d="M9.17 6L11.17 8H20V18H4V6H9.17ZM10 4H4C2.9 4 2.01 4.9 2.01 6L2 18C2 19.1 2.9 20 4 20H20C21.1 20 22 19.1 22 18V8C22 6.9 21.1 6 20 6H12L10 4Z" fill="#1C2125"/>
</svg>
